priv/static/svgs/country_flags/MQ.svg

<?xml version="1.0" encoding="UTF-8"?>
<svg id="item" width="21px" height="15px" viewBox="0 0 21 15" version="1.1" xmlns="http://www.w3.org/2000/svg" xmlns:xlink="http://www.w3.org/1999/xlink">
    <defs>
        <linearGradient x1="50%" y1="0%" x2="50%" y2="100%" id="linearGradient-1">
            <stop stop-color="#FFFFFF" offset="0%"></stop>
            <stop stop-color="#F0F0F0" offset="100%"></stop>
        </linearGradient>
        <linearGradient x1="50%" y1="0%" x2="50%" y2="100%" id="linearGradient-2">
            <stop stop-color="#345CB3" offset="0%"></stop>
            <stop stop-color="#23448D" offset="100%"></stop>
        </linearGradient>
    </defs>
    <g id="Symbols" stroke="none" stroke-width="1" fill="none" fill-rule="evenodd">
        <g id="MQ">
            <rect id="FlagBackground" fill="url(#linearGradient-1)" x="0" y="0" width="21" height="15"></rect>
            <rect id="Mask" fill="url(#linearGradient-2)" x="0" y="0" width="21" height="15"></rect>
            <path d="M15.9173205,1.60294975 C16.069143,1.59777837 16.2346523,1.59893336 16.3876801,1.61067335 C16.5937927,1.62648589 16.7394532,1.6719675 16.7283793,1.62941465 C16.7109448,1.5624209 16.7225179,1.54529979 16.69941,1.56218219 C16.6482603,1.59955172 16.7243442,1.5550883 16.4205821,1.728892 C15.9786474,1.98175396 15.7873262,2.17391899 15.8842377,2.52013243 C15.9691653,2.82353407 16.1942092,2.90746797 16.7226866,2.99032017 C16.7579458,2.99581646 16.7579458,2.99581646 16.7925262,3.00116351 C17.0039856,3.0339178 17.0985161,3.05387898 17.1619289,3.08197164 C17.1761709,3.08828103 17.1487915,3.04465613 17.1568379,3.01759627 C17.1498359,3.04114368 17.0094877,3.09606439 16.6564147,3.16558723 C16.5704828,3.1824057 16.5704828,3.1824057 16.481321,3.20027807 C15.800913,3.33905416 15.4618536,3.5203432 15.411153,3.9906446 C15.355561,4.5063184 15.8899956,4.86512963 16.561094,4.95335699 C17.2460057,5.04340033 17.8413235,4.81717695 17.902187,4.26094187 C17.940873,3.907388 17.6952536,3.69555353 17.3061661,3.6177409 C17.042303,3.56497156 16.6948463,3.56558056 16.278192,3.60699156 C16.0447333,3.63019486 15.7974869,3.66558875 15.5444782,3.70989381 C15.2624759,3.75927603 15.0309617,3.80870395 14.8917646,3.84208047 C14.7574992,3.87427448 14.674754,4.0092165 14.706948,4.1434819 C14.739142,4.27774731 14.874084,4.36049252 15.0083495,4.32829851 C15.1382394,4.29715365 15.3600403,4.24979948 15.6307223,4.20239961 C15.872327,4.16009152 16.1076362,4.12640647 16.327643,4.10454015 C16.6991645,4.06761487 17.0033477,4.06708171 17.208114,4.10803241 C17.3748306,4.14137366 17.4090561,4.17089143 17.4051536,4.20655626 C17.3843492,4.39668874 17.0703595,4.51600624 16.6262668,4.45762267 C16.1901723,4.40029061 15.8915054,4.19977016 15.9082726,4.04423634 C15.9254776,3.88464193 16.1090154,3.78650752 16.5812438,3.69019176 C16.666542,3.67309383 16.666542,3.67309383 16.7530137,3.65616712 C17.3346722,3.541634 17.5474028,3.45838884 17.6360985,3.16010693 C17.708655,2.91610062 17.5880028,2.72385949 17.3644515,2.62482333 C17.2445774,2.57171755 17.1291302,2.54733957 16.8690617,2.50705591 C16.8343753,2.5016923 16.8343753,2.5016923 16.8001283,2.4963538 C16.4989549,2.44913724 16.3701352,2.40109178 16.3657299,2.38535398 C16.3614612,2.37010426 16.4339334,2.29731247 16.6688942,2.16287482 C16.7500963,2.11689977 16.7970879,2.09029859 16.8329436,2.06934449 C16.8983849,2.03110062 16.9492695,1.99886312 16.9943716,1.96591188 C17.16707,1.83973989 17.2628812,1.6979976 17.2122622,1.50348875 C17.1411502,1.23023401 16.8727075,1.14641442 16.4259267,1.1121383 C16.2516476,1.09876796 16.0689976,1.09749335 15.9002994,1.10323955 C15.8406033,1.10559414 15.8406033,1.10559414 15.8251373,1.10648124 C15.6872968,1.11445961 15.5820228,1.23266915 15.5900011,1.37050963 C15.5979795,1.50835011 15.716189,1.61362415 15.8540295,1.60564579 C15.8642098,1.60504845 15.8642098,1.60504845 15.9173205,1.60294975 Z" id="Line" fill="url(#linearGradient-1)" fill-rule="nonzero"></path>
            <path d="M4.31732062,1.60294975 C4.46914311,1.59777837 4.63465236,1.59893336 4.78768019,1.61067335 C4.99379282,1.62648589 5.13945333,1.6719675 5.12837935,1.62941465 C5.11094487,1.5624209 5.12251796,1.54529979 5.09941012,1.56218219 C5.04826044,1.59955172 5.12434432,1.5550883 4.8205822,1.728892 C4.37864751,1.98175396 4.18732633,2.17391899 4.28423778,2.52013243 C4.36916542,2.82353407 4.59420933,2.90746797 5.12268671,2.99032017 C5.15794588,2.99581646 5.15794588,2.99581646 5.19252634,3.00116351 C5.4039857,3.0339178 5.49851624,3.05387898 5.56192895,3.08197164 C5.57617095,3.08828103 5.54879158,3.04465613 5.55683798,3.01759627 C5.54983603,3.04114368 5.40948782,3.09606439 5.0564148,3.16558723 C4.97048287,3.1824057 4.97048287,3.1824057 4.88132109,3.20027807 C4.20091312,3.33905416 3.86185369,3.5203432 3.81115308,3.9906446 C3.75556112,4.5063184 4.28999568,4.86512963 4.96109412,4.95335699 C5.64600582,5.04340033 6.24132363,4.81717695 6.30218712,4.26094187 C6.34087314,3.907388 6.09525367,3.69555353 5.70616624,3.6177409 C5.44230308,3.56497156 5.09484638,3.56558056 4.67819207,3.60699156 C4.44473339,3.63019486 4.19748704,3.66558875 3.9444783,3.70989381 C3.66247599,3.75927603 3.43096182,3.80870395 3.29176473,3.84208047 C3.15749932,3.87427448 3.07475411,4.0092165 3.10694812,4.1434819 C3.13914213,4.27774731 3.27408414,4.36049252 3.40834955,4.32829851 C3.53823949,4.29715365 3.76004042,4.24979948 4.03072236,4.20239961 C4.27232714,4.16009152 4.50763634,4.12640647 4.7276431,4.10454015 C5.09916464,4.06761487 5.40334776,4.06708171 5.60811406,4.10803241 C5.77483068,4.14137366 5.80905618,4.17089143 5.80515372,4.20655626 C5.78434933,4.39668874 5.47035955,4.51600624 5.02626686,4.45762267 C4.59017241,4.40029061 4.29150547,4.19977016 4.30827271,4.04423634 C4.32547771,3.88464193 4.50901554,3.78650752 4.98124394,3.69019176 C5.0665421,3.67309383 5.0665421,3.67309383 5.15301382,3.65616712 C5.73467234,3.541634 5.94740286,3.45838884 6.03609856,3.16010693 C6.10865513,2.91610062 5.98800294,2.72385949 5.76445161,2.62482333 C5.64457753,2.57171755 5.52913025,2.54733957 5.26906182,2.50705591 C5.23437537,2.5016923 5.23437537,2.5016923 5.20012844,2.4963538 C4.89895499,2.44913724 4.77013531,2.40109178 4.76573001,2.38535398 C4.76146134,2.37010426 4.83393347,2.29731247 5.06889433,2.16287482 C5.15009635,2.11689977 5.19708798,2.09029859 5.23294373,2.06934449 C5.29838497,2.03110062 5.34926957,1.99886312 5.3943717,1.96591188 C5.56707005,1.83973989 5.66288133,1.6979976 5.61226226,1.50348875 C5.54115033,1.23023401 5.27270764,1.14641442 4.8259268,1.1121383 C4.65164772,1.09876796 4.46899773,1.09749335 4.30029948,1.10323955 C4.24060337,1.10559414 4.24060337,1.10559414 4.22513739,1.10648124 C4.08729691,1.11445961 3.98202286,1.23266915 3.99000123,1.37050963 C3.9979796,1.50835011 4.11618914,1.61362415 4.25402962,1.60564579 C4.26420986,1.60504845 4.26420986,1.60504845 4.31732062,1.60294975 Z" id="Line-Copy" fill="url(#linearGradient-1)" fill-rule="nonzero"></path>
            <path d="M15.9173205,10.6029501 C16.069143,10.5977787 16.2346523,10.5989337 16.3876801,10.6106737 C16.5937927,10.6264863 16.7394532,10.6719679 16.7283793,10.629415 C16.7109448,10.5624213 16.7225179,10.5453001 16.69941,10.5621825 C16.6482603,10.5995521 16.7243442,10.5550887 16.4205821,10.7288924 C15.9786474,10.9817543 15.7873262,11.1739193 15.8842377,11.5201328 C15.9691653,11.8235344 16.1942092,11.9074683 16.7226866,11.9903205 C16.7579458,11.9958168 16.7579458,11.9958168 16.7925262,12.0011639 C17.0039856,12.0339182 17.0985161,12.0538793 17.1619289,12.081972 C17.1761709,12.0882814 17.1487915,12.0446565 17.1568379,12.0175966 C17.1498359,12.041144 17.0094877,12.0960647 16.6564147,12.1655876 C16.5704828,12.1824061 16.5704828,12.1824061 16.481321,12.2002784 C15.800913,12.3390545 15.4618536,12.5203436 15.411153,12.990645 C15.355561,13.5063188 15.8899956,13.86513 16.561094,13.9533573 C17.2460057,14.0434007 17.8413235,13.8171773 17.902187,13.2609422 C17.940873,12.9073884 17.6952536,12.6955539 17.3061661,12.6177413 C17.042303,12.5649719 16.6948463,12.5655809 16.278192,12.6069919 C16.0447333,12.6301952 15.7974869,12.6655891 15.5444782,12.7098942 C15.2624759,12.7592764 15.0309617,12.8087043 14.8917646,12.8420808 C14.7574992,12.8742748 14.674754,13.0092169 14.706948,13.1434823 C14.739142,13.2777477 14.874084,13.3604929 15.0083495,13.3282989 C15.1382394,13.297154 15.3600403,13.2497998 15.6307223,13.2024 C15.872327,13.1600919 16.1076362,13.1264068 16.327643,13.1045405 C16.6991645,13.0676152 17.0033477,13.0670821 17.208114,13.1080328 C17.3748306,13.141374 17.4090561,13.1708918 17.4051536,13.2065566 C17.3843492,13.3966891 17.0703595,13.5160066 16.6262668,13.457623 C16.1901723,13.400291 15.8915054,13.1997705 15.9082726,13.0442367 C15.9254776,12.8846423 16.1090154,12.7865079 16.5812438,12.6901921 C16.666542,12.6730942 16.666542,12.6730942 16.7530137,12.6561675 C17.3346722,12.5416344 17.5474028,12.4583892 17.6360985,12.1601073 C17.708655,11.916101 17.5880028,11.7238598 17.3644515,11.6248237 C17.2445774,11.5717179 17.1291302,11.5473399 16.8690617,11.5070563 C16.8343753,11.5016927 16.8343753,11.5016927 16.8001283,11.4963542 C16.4989549,11.4491376 16.3701352,11.4010921 16.3657299,11.3853543 C16.3614612,11.3701046 16.4339334,11.2973128 16.6688942,11.1628752 C16.7500963,11.1169001 16.7970879,11.0902989 16.8329436,11.0693448 C16.8983849,11.031101 16.9492695,10.9988635 16.9943716,10.9659122 C17.16707,10.8397403 17.2628812,10.697998 17.2122622,10.5034891 C17.1411502,10.2302344 16.8727075,10.1464148 16.4259267,10.1121387 C16.2516476,10.0987683 16.0689976,10.0974937 15.9002994,10.1032399 C15.8406033,10.1055945 15.8406033,10.1055945 15.8251373,10.1064816 C15.6872968,10.11446 15.5820228,10.2326695 15.5900011,10.37051 C15.5979795,10.5083505 15.716189,10.6136245 15.8540295,10.6056461 C15.8642098,10.6050488 15.8642098,10.6050488 15.9173205,10.6029501 Z" id="Line-Copy-3" fill="url(#linearGradient-1)" fill-rule="nonzero"></path>
            <path d="M4.31732062,10.6029501 C4.46914311,10.5977787 4.63465236,10.5989337 4.78768019,10.6106737 C4.99379282,10.6264863 5.13945333,10.6719679 5.12837935,10.629415 C5.11094487,10.5624213 5.12251796,10.5453001 5.09941012,10.5621825 C5.04826044,10.5995521 5.12434432,10.5550887 4.8205822,10.7288924 C4.37864751,10.9817543 4.18732633,11.1739193 4.28423778,11.5201328 C4.36916542,11.8235344 4.59420933,11.9074683 5.12268671,11.9903205 C5.15794588,11.9958168 5.15794588,11.9958168 5.19252634,12.0011639 C5.4039857,12.0339182 5.49851624,12.0538793 5.56192895,12.081972 C5.57617095,12.0882814 5.54879158,12.0446565 5.55683798,12.0175966 C5.54983603,12.041144 5.40948782,12.0960647 5.0564148,12.1655876 C4.97048287,12.1824061 4.97048287,12.1824061 4.88132109,12.2002784 C4.20091312,12.3390545 3.86185369,12.5203436 3.81115308,12.990645 C3.75556112,13.5063188 4.28999568,13.86513 4.96109412,13.9533573 C5.64600582,14.0434007 6.24132363,13.8171773 6.30218712,13.2609422 C6.34087314,12.9073884 6.09525367,12.6955539 5.70616624,12.6177413 C5.44230308,12.5649719 5.09484638,12.5655809 4.67819207,12.6069919 C4.44473339,12.6301952 4.19748704,12.6655891 3.9444783,12.7098942 C3.66247599,12.7592764 3.43096182,12.8087043 3.29176473,12.8420808 C3.15749932,12.8742748 3.07475411,13.0092169 3.10694812,13.1434823 C3.13914213,13.2777477 3.27408414,13.3604929 3.40834955,13.3282989 C3.53823949,13.297154 3.76004042,13.2497998 4.03072236,13.2024 C4.27232714,13.1600919 4.50763634,13.1264068 4.7276431,13.1045405 C5.09916464,13.0676152 5.40334776,13.0670821 5.60811406,13.1080328 C5.77483068,13.141374 5.80905618,13.1708918 5.80515372,13.2065566 C5.78434933,13.3966891 5.47035955,13.5160066 5.02626686,13.457623 C4.59017241,13.400291 4.29150547,13.1997705 4.30827271,13.0442367 C4.32547771,12.8846423 4.50901554,12.7865079 4.98124394,12.6901921 C5.0665421,12.6730942 5.0665421,12.6730942 5.15301382,12.6561675 C5.73467234,12.5416344 5.94740286,12.4583892 6.03609856,12.1601073 C6.10865513,11.916101 5.98800294,11.7238598 5.76445161,11.6248237 C5.64457753,11.5717179 5.52913025,11.5473399 5.26906182,11.5070563 C5.23437537,11.5016927 5.23437537,11.5016927 5.20012844,11.4963542 C4.89895499,11.4491376 4.77013531,11.4010921 4.76573001,11.3853543 C4.76146134,11.3701046 4.83393347,11.2973128 5.06889433,11.1628752 C5.15009635,11.1169001 5.19708798,11.0902989 5.23294373,11.0693448 C5.29838497,11.031101 5.34926957,10.9988635 5.3943717,10.9659122 C5.56707005,10.8397403 5.66288133,10.697998 5.61226226,10.5034891 C5.54115033,10.2302344 5.27270764,10.1464148 4.8259268,10.1121387 C4.65164772,10.0987683 4.46899773,10.0974937 4.30029948,10.1032399 C4.24060337,10.1055945 4.24060337,10.1055945 4.22513739,10.1064816 C4.08729691,10.11446 3.98202286,10.2326695 3.99000123,10.37051 C3.9979796,10.5083505 4.11618914,10.6136245 4.25402962,10.6056461 C4.26420986,10.6050488 4.26420986,10.6050488 4.31732062,10.6029501 Z" id="Line-Copy-2" fill="url(#linearGradient-1)" fill-rule="nonzero"></path>
            <path d="M9,6 L0,6 L0,9 L9,9 L9,15 L12,15 L12,9 L21,9 L21,6 L12,6 L12,0 L9,0 L9,6 Z" id="Rectangle-2" fill="url(#linearGradient-1)"></path>
        </g>
    </g>
</svg>

<svg width="21" height="15" viewBox="0 0 21 15" xmlns="http://www.w3.org/2000/svg"><defs><linearGradient x1="50%" y1="0%" x2="50%" y2="100%" id="a"><stop stop-color="#FFF" offset="0%"/><stop stop-color="#F0F0F0" offset="100%"/></linearGradient><linearGradient x1="50%" y1="0%" x2="50%" y2="100%" id="b"><stop stop-color="#345CB3" offset="0%"/><stop stop-color="#23448D" offset="100%"/></linearGradient></defs><g fill="none" fill-rule="evenodd"><path fill="url(#a)" d="M0 0h21v15H0z"/><path fill="url(#b)" d="M0 0h21v15H0z"/><path d="M15.917 1.603a4.37 4.37 0 0 1 .47.008c.207.015.352.061.341.018-.017-.067-.005-.084-.029-.067-.05.038.025-.007-.278.167-.442.253-.634.445-.537.791.085.304.31.387.839.47l.07.011c.211.033.306.053.369.081.014.006-.013-.037-.005-.064-.007.023-.148.078-.5.148l-.176.034c-.68.14-1.02.32-1.07.79-.055.516.479.875 1.15.963.685.09 1.28-.136 1.341-.692.039-.354-.207-.565-.596-.643-.264-.053-.611-.052-1.028-.011a11.378 11.378 0 0 0-1.386.235.25.25 0 1 0 .116.486 10.906 10.906 0 0 1 1.32-.223c.371-.037.675-.038.88.003.167.033.201.063.197.099-.02.19-.335.309-.779.25-.436-.057-.734-.257-.718-.413.017-.16.201-.257.673-.354l.172-.034c.582-.114.794-.198.883-.496.073-.244-.048-.436-.272-.535-.12-.053-.235-.078-.495-.118l-.069-.01c-.301-.048-.43-.096-.434-.112-.005-.015.068-.088.303-.222l.164-.094a1.87 1.87 0 0 0 .161-.103c.173-.126.269-.268.218-.463-.07-.273-.34-.357-.786-.39a4.847 4.847 0 0 0-.526-.01l-.075.003a.25.25 0 0 0 .029.5l.063-.003ZM4.317 1.603a4.37 4.37 0 0 1 .47.008c.207.015.352.061.341.018-.017-.067-.005-.084-.029-.067-.05.038.025-.007-.278.167-.442.253-.634.445-.537.791.085.304.31.387.839.47l.07.011c.211.033.306.053.369.081.014.006-.013-.037-.005-.064-.007.023-.148.078-.5.148L4.88 3.2c-.68.14-1.02.32-1.07.79-.055.516.479.875 1.15.963.685.09 1.28-.136 1.341-.692.039-.354-.207-.565-.596-.643-.264-.053-.611-.052-1.028-.011a11.378 11.378 0 0 0-1.386.235.25.25 0 1 0 .116.486 10.906 10.906 0 0 1 1.32-.223c.371-.037.675-.038.88.003.167.033.201.063.197.099-.02.19-.335.309-.779.25-.436-.057-.734-.257-.718-.413.017-.16.201-.257.673-.354l.172-.034c.582-.114.794-.198.883-.496.073-.244-.048-.436-.272-.535-.12-.053-.235-.078-.495-.118l-.069-.01c-.301-.048-.43-.096-.434-.112-.005-.015.068-.088.303-.222l.164-.094a1.87 1.87 0 0 0 .161-.103c.173-.126.269-.268.218-.463-.07-.273-.34-.357-.786-.39a4.847 4.847 0 0 0-.526-.01l-.075.003a.25.25 0 0 0 .029.5l.063-.003ZM15.917 10.603a4.37 4.37 0 0 1 .47.008c.207.015.352.061.341.018-.017-.067-.005-.084-.029-.067-.05.038.025-.007-.278.167-.442.253-.634.445-.537.791.085.304.31.387.839.47l.07.011c.211.033.306.053.369.081.014.006-.013-.037-.005-.064-.007.023-.148.078-.5.148l-.176.034c-.68.14-1.02.32-1.07.79-.055.516.479.875 1.15.963.685.09 1.28-.136 1.341-.692.039-.354-.207-.565-.596-.643-.264-.053-.611-.052-1.028-.011a11.378 11.378 0 0 0-1.386.235.25.25 0 0 0 .116.486 10.906 10.906 0 0 1 1.32-.223c.371-.037.675-.038.88.003.167.033.201.063.197.099-.02.19-.335.309-.779.25-.436-.057-.734-.257-.718-.413.017-.16.201-.257.673-.354l.172-.034c.582-.114.794-.198.883-.496.073-.244-.048-.436-.272-.535-.12-.053-.235-.078-.495-.118l-.069-.01c-.301-.048-.43-.096-.434-.112-.005-.015.068-.088.303-.222l.164-.094a1.87 1.87 0 0 0 .161-.103c.173-.126.269-.268.218-.463-.07-.273-.34-.357-.786-.39a4.847 4.847 0 0 0-.526-.01l-.075.003a.25.25 0 0 0 .029.5l.063-.003ZM4.317 10.603a4.37 4.37 0 0 1 .47.008c.207.015.352.061.341.018-.017-.067-.005-.084-.029-.067-.05.038.025-.007-.278.167-.442.253-.634.445-.537.791.085.304.31.387.839.47l.07.011c.211.033.306.053.369.081.014.006-.013-.037-.005-.064-.007.023-.148.078-.5.148l-.176.034c-.68.14-1.02.32-1.07.79-.055.516.479.875 1.15.963.685.09 1.28-.136 1.341-.692.039-.354-.207-.565-.596-.643-.264-.053-.611-.052-1.028-.011a11.378 11.378 0 0 0-1.386.235.25.25 0 0 0 .116.486 10.906 10.906 0 0 1 1.32-.223c.371-.037.675-.038.88.003.167.033.201.063.197.099-.02.19-.335.309-.779.25-.436-.057-.734-.257-.718-.413.017-.16.201-.257.673-.354l.172-.034c.582-.114.794-.198.883-.496.073-.244-.048-.436-.272-.535-.12-.053-.235-.078-.495-.118l-.069-.01c-.301-.048-.43-.096-.434-.112-.005-.015.068-.088.303-.222l.164-.094a1.87 1.87 0 0 0 .161-.103c.173-.126.269-.268.218-.463-.07-.273-.34-.357-.786-.39a4.847 4.847 0 0 0-.526-.01l-.075.003a.25.25 0 0 0 .029.5l.063-.003Z" fill="url(#a)" fill-rule="nonzero"/><path d="M9 6H0v3h9v6h3V9h9V6h-9V0H9v6Z" fill="url(#a)"/></g></svg>
